documentation/public/assets/images/dismissible.svg

<svg width="82" height="16" viewBox="0 0 82 16" fill="none" xmlns="http://www.w3.org/2000/svg">
<rect y="2.44531" width="57.0273" height="11.1092" rx="5.55461" fill="#545454"/>
<path d="M76.5672 12.1696C76.4072 12.1696 76.2472 12.1096 76.1272 11.9896L72.7972 8.65965L69.4672 11.9896C69.2272 12.2296 68.8272 12.2296 68.5872 11.9896C68.3472 11.7496 68.3472 11.3496 68.5872 11.1096L71.9172 7.77965L68.5872 4.44965C68.3472 4.20965 68.3472 3.80965 68.5872 3.56965C68.8272 3.32965 69.2272 3.32965 69.4672 3.56965L72.7972 6.89965L76.1272 3.56965C76.3672 3.32965 76.7672 3.32965 77.0072 3.56965C77.2472 3.80965 77.2472 4.20965 77.0072 4.44965L73.6772 7.77965L77.0072 11.1096C77.2472 11.3496 77.2472 11.7496 77.0072 11.9896C76.8872 12.1096 76.7272 12.1696 76.5672 12.1696Z" fill="#0F67F5"/>
</svg>

<svg width="82" height="16" fill="none" xmlns="http://www.w3.org/2000/svg"><rect y="2.45" width="57.03" height="11.11" rx="5.55" fill="#545454"/><path d="M76.57 12.17a.62.62 0 0 1-.44-.18L72.8 8.66l-3.33 3.33a.63.63 0 0 1-.88 0 .63.63 0 0 1 0-.88l3.33-3.33-3.33-3.33a.63.63 0 0 1 0-.88.63.63 0 0 1 .88 0L72.8 6.9l3.33-3.33a.63.63 0 0 1 .88 0c.24.24.24.64 0 .88l-3.33 3.33L77 11.11c.24.24.24.64 0 .88a.62.62 0 0 1-.44.18Z" fill="#0F67F5"/></svg>
